X: 23347
T: Leitrim Clog Dance
R: hornpipe
M: 4/4
K: Dmajor
|:(3A,B,C|D2 FA DA FA|G2 .B2 G2 (3Bcd|D2 FA DA FA|E2 .c2 E2 .c2|
D2 FA DA FA|G2 .B2 G2 B2|Ad cB AG FE|(3DED CE D2:|
|:(3ABc|dA FA dA FA|G2 .B2 G2 BG|dA FA dA FA|E2 .c2 E2 .c2|
dA FA dA FA|G2 .B2 G2 B2|Ad cB AG FE|(3DED CE D2:|

